X:1
T:Price of my Pig, The
L:1/8
M:6/8
Z:transcribed by Jürgen Gier
K:AMin
EAA AGA|~B3 GAB|~c3 ~B3|AGE E2D|
EAA AGA|~B3 GAB|eBc ~B3|AGE E2D:|
|:efe ded|~c3 ~B3|~c3 ~B3|AGE E2D|
EAA AGA|B/c/dB GAB|eBc ~B3|AGE E3:|

